X:1016
M:C
L:1/8
Q:1/4=120
K:G
b|g<g   b>a (g2 g>)d|(e2 e>)g a3  b   |g>g```b>a (g2 g>)e|TdB```````de (g2g)b|
  g<g   b>a  g2 gd  | e2 eg   a3 b/c'/|d'>b``c'>a b>ga>f | e/d/e/f/ gB  G3  |]

